X: 11583
T: Edwin's
R: jig
M: 6/8
K: Gminor
|:B2B GAB|GAB A2G|GAB GAB|c2c cGA|
B2B GAB|GAB A2G|d2d dcB|1 c2c cGA:|2 c3 ccd||
K:Gmaj
|:e2e e2d|efg e2d|cdc BAG|A2A2d2|
e2e e2d|efg e2d|cdc BAG|1 A3 ABd:|2 A3 cGA||

